X: 3276
M: 6/8
L: 1/8
K: G
|:\
|:\
d3  g3  | ege dBG | d3  g3  | eag fed |\
gbg afa | ege dBd | efg dcB | ABG FED :|


